symbols/web/local_shipping/materialsymbolsoutlined/local_shipping_wght200grad200_24px.svg

<svg xmlns="http://www.w3.org/2000/svg" height="24" width="24"><path d="M5.75 19.875q-1.225 0-2.075-.85-.85-.85-.85-2.075H1.05V6.525q0-.975.65-1.625t1.6-.65h13.65v3.975h2.75l3.25 4.3v4.425h-1.9q0 1.225-.85 2.075-.85.85-2.075.85-1.2 0-2.038-.85-.837-.85-.837-2.075h-6.6q0 1.225-.85 2.075-.85.85-2.05.85Zm0-1.65q.525 0 .888-.375.362-.375.362-.9t-.362-.9q-.363-.375-.888-.375t-.9.375q-.375.375-.375.9t.375.9q.375.375.9.375ZM2.7 15.3h.75q.35-.55.95-.913.6-.362 1.35-.362.7 0 1.312.375.613.375.988.9h7.25V5.9h-12q-.225 0-.412.187-.188.188-.188.438Zm15.425 2.925q.525 0 .9-.375t.375-.9q0-.525-.375-.9t-.9-.375q-.525 0-.9.375t-.375.9q0 .525.375.9t.9.375ZM16.95 13.25h4.5l-2.6-3.375h-1.9ZM9 10.6Z"/></svg>

<svg xmlns="http://www.w3.org/2000/svg" height="24" width="24"><path d="M5.75 19.875Q4.525 19.875 3.675 19.025Q2.825 18.175 2.825 16.95H1.05V6.525Q1.05 5.55 1.7 4.9Q2.35 4.25 3.3 4.25H16.95V8.225H19.7L22.95 12.525V16.95H21.05Q21.05 18.175 20.2 19.025Q19.35 19.875 18.125 19.875Q16.925 19.875 16.087 19.025Q15.25 18.175 15.25 16.95H8.65Q8.65 18.175 7.8 19.025Q6.95 19.875 5.75 19.875ZM5.75 18.225Q6.275 18.225 6.638 17.85Q7 17.475 7 16.95Q7 16.425 6.638 16.05Q6.275 15.675 5.75 15.675Q5.225 15.675 4.85 16.05Q4.475 16.425 4.475 16.95Q4.475 17.475 4.85 17.85Q5.225 18.225 5.75 18.225ZM2.7 15.3H3.45Q3.8 14.75 4.4 14.387Q5 14.025 5.75 14.025Q6.45 14.025 7.062 14.4Q7.675 14.775 8.05 15.3H15.3V5.9H3.3Q3.075 5.9 2.888 6.087Q2.7 6.275 2.7 6.525ZM18.125 18.225Q18.65 18.225 19.025 17.85Q19.4 17.475 19.4 16.95Q19.4 16.425 19.025 16.05Q18.65 15.675 18.125 15.675Q17.6 15.675 17.225 16.05Q16.85 16.425 16.85 16.95Q16.85 17.475 17.225 17.85Q17.6 18.225 18.125 18.225ZM16.95 13.25H21.45L18.85 9.875H16.95ZM9 10.6Q9 10.6 9 10.6Q9 10.6 9 10.6Q9 10.6 9 10.6Q9 10.6 9 10.6Q9 10.6 9 10.6Q9 10.6 9 10.6Z"/></svg>
